lib/healthicons/icons/solid/typography/F.svg

<svg fill="none" height="48" viewBox="0 0 48 48" width="48" xmlns="http://www.w3.org/2000/svg"><path clip-rule="evenodd" d="m16 12c0-1.1046.8954-2 2-2h12c1.1046 0 2 .8954 2 2s-.8954 2-2 2h-10v8h10c1.1046 0 2 .8954 2 2s-.8954 2-2 2h-10v10c0 1.1046-.8954 2-2 2s-2-.8954-2-2z" fill="#333" fill-rule="evenodd"/></svg>

<svg width="48" height="48" viewBox="0 0 48 48" fill="none" xmlns="http://www.w3.org/2000/svg">
<path fill-rule="evenodd" clip-rule="evenodd" d="M16 12C16 10.8954 16.8954 10 18 10L30 10C31.1046 10 32 10.8954 32 12C32 13.1046 31.1046 14 30 14L20 14L20 22L30 22C31.1046 22 32 22.8954 32 24C32 25.1046 31.1046 26 30 26L20 26L20 36C20 37.1046 19.1046 38 18 38C16.8954 38 16 37.1046 16 36L16 12Z" fill="#333333"/>
</svg>
